X:411
T:Reel 411
M:4/4
K:Emin
L:1/8
ef|gfed Bedf|gfaf gefd|ceed BAdF|ABca efff|gfef gfed|cBAc BAGA|BGGF GABf|gefd e2|ef|gfga bgeg|fgaf bfaf|gfga bgef|gefd Beef|gabg c'gbg|afdf afdf|g2gf gfef|gefd e2|
